X:180
%%pagewidth 9in
%%vocalfont Baskerville10Pro 14
T:Cuckolds all a row
M:6/8
L:1/8
K:C
%%score 1 2
V:1 clef-treble
V:2 clef-bass octave=-1
[V:1]d|d2d d2c &F6|B2cD2G &D6|A2A (B>A)B &F2xF3|[Ec]3-[Ec]2d|
w:Come ba-che-lors and mar-ried men, And lis-ten to* my song,* And
[V:2]z|[DA]6|G2A B3 &G6|[Fc]3[Dd]3|C3c3|
[V:1]d2d d2c &F6|B2cd2G&D6|A2A (B>A)B&F2xF3|[Ec]3-[Ec]2E|
w:I will shew you plain-ly then, The in-ju-ry* and wrong* That
[V:2][DA]6|G2A B3 &G6|[Fc]3[Dd]3|C3c3|
[V:1](F>G)F (E>D)E|D2D (B>A)B&x3D2x|[Cc]2G [B,A]G2|([CE]3C2) (D/E/)|
w:con-*stant-ly* I do sus-tain* Through my un-*happy life,* The*
[V:2]c6&A3G3|F>EF G2F|E2z [G,D]2z|C3C3|
[V:1](F>G)F (E>D)E|D2D (B>A)B&x3D2x|[Cc]2G [B,A]G2|[C(E]3C2)||
w:which* does put* me to great pain,* By my un-qui-et wife.*
[V:2]c6&A3G3|F>EF G2F|E2z [G,D]2z|C3C2||

